X:21
T:Chaplet THO1.021
M:C|
L:1/8
Z:vmp. Peter Dunk 2012.from a transcription by Fynn Titford-Mock 2006
B:Thompson's Compleat Collection of 200 Favourite Country Dances Vol.I,1758
Q:1/2=60
K:D
a2 f/g/a g2 e/f/g|fdAf ec A2|dAfd afbg|f/g/a Ac d2D2:|
|:AF/G/ Af ec A2|GF/G/ Ag f2e2|AF/G/ Af edef|gfed c2e2|
a2 f/g/a g2 e/f/g|fdaf ecAc|dAfd afbg|f/g/a Ac d2D2:|

